public/icons/java.svg

<svg width="128" height="128" viewBox="0 0 128 128" fill="none" xmlns="http://www.w3.org/2000/svg">
<path d="M47.6171 98.12C47.6171 98.12 42.8501 100.894 51.0141 101.83C60.9061 102.96 65.9611 102.798 76.8591 100.738C76.8591 100.738 79.7301 102.533 83.7321 104.089C59.2931 114.559 28.4241 103.482 47.6171 98.12ZM44.6291 84.455C44.6291 84.455 39.2811 88.414 47.4521 89.26C58.0191 90.351 66.3621 90.44 80.8061 87.66C80.8061 87.66 82.7991 89.685 85.9381 90.791C56.3961 99.431 23.4921 91.471 44.6291 84.455V84.455Z" fill="#0074BD"/>
<path d="M69.802 61.271C75.827 68.206 68.222 74.441 68.222 74.441C68.222 74.441 83.511 66.55 76.491 56.664C69.932 47.449 64.904 42.872 92.126 27.084C92.126 27.085 49.395 37.754 69.802 61.271V61.271Z" fill="#EA2D2E"/>
<path d="M102.123 108.229C102.123 108.229 105.652 111.139 98.2349 113.388C84.1329 117.66 39.5289 118.948 27.1409 113.559C22.6899 111.621 31.0399 108.934 33.6669 108.367C36.4059 107.774 37.9699 107.882 37.9699 107.882C33.0169 104.395 5.95692 114.732 24.2269 117.697C74.0479 125.773 115.044 114.06 102.123 108.229V108.229ZM49.9119 70.294C49.9119 70.294 27.2259 75.683 41.8789 77.642C48.0669 78.47 60.3969 78.28 71.8899 77.316C81.2799 76.527 90.7029 74.842 90.7029 74.842C90.7029 74.842 87.3949 76.261 84.9989 77.895C61.9569 83.956 17.4549 81.133 30.2679 74.937C41.0999 69.698 49.9119 70.294 49.9119 70.294V70.294ZM90.6089 93.041C114.03 80.874 103.2 69.181 95.6409 70.756C93.7929 71.141 92.9639 71.476 92.9639 71.476C92.9639 71.476 93.6519 70.397 94.9639 69.933C109.917 64.678 121.415 85.436 90.1409 93.658C90.1409 93.656 90.4999 93.331 90.6089 93.041V93.041Z" fill="#0074BD"/>
<path d="M76.4909 1.58704C76.4909 1.58704 89.4589 14.563 64.1879 34.51C43.9219 50.516 59.5669 59.64 64.1809 70.069C52.3499 59.396 43.6719 49.999 49.4929 41.254C58.0409 28.42 81.7219 22.195 76.4909 1.58704Z" fill="#EA2D2E"/>
<path d="M52.2139 126.021C74.6899 127.458 109.214 125.221 110.031 114.585C110.031 114.585 108.46 118.617 91.4539 121.816C72.2679 125.428 48.5999 125.007 34.5669 122.69C34.5669 122.691 37.4419 125.071 52.2139 126.021V126.021Z" fill="#0074BD"/>
</svg>

<svg xmlns="http://www.w3.org/2000/svg" fill="none" viewBox="0 0 128 128"><path fill="#0074BD" d="M47.617 98.12s-4.767 2.774 3.397 3.71c9.892 1.13 14.947.968 25.845-1.092 0 0 2.871 1.795 6.873 3.351-24.439 10.47-55.308-.607-36.115-5.969ZM44.63 84.455s-5.348 3.959 2.823 4.805c10.567 1.091 18.91 1.18 33.354-1.6 0 0 1.993 2.025 5.132 3.131-29.542 8.64-62.446.68-41.309-6.336Z"/><path fill="#EA2D2E" d="M69.802 61.271c6.025 6.935-1.58 13.17-1.58 13.17s15.289-7.891 8.269-17.777c-6.559-9.215-11.587-13.792 15.635-29.58 0 .001-42.731 10.67-22.324 34.187Z"/><path fill="#0074BD" d="M102.123 108.229s3.529 2.91-3.888 5.159c-14.102 4.272-58.706 5.56-71.094.171-4.451-1.938 3.899-4.625 6.526-5.192 2.739-.593 4.303-.485 4.303-.485-4.953-3.487-32.013 6.85-13.743 9.815 49.82 8.076 90.817-3.637 77.896-9.468ZM49.912 70.294s-22.686 5.389-8.033 7.348c6.188.828 18.518.638 30.01-.326 9.39-.789 18.814-2.474 18.814-2.474s-3.308 1.419-5.704 3.053c-23.042 6.061-67.544 3.238-54.731-2.958 10.832-5.239 19.644-4.643 19.644-4.643Zm40.697 22.747c23.421-12.167 12.591-23.86 5.032-22.285-1.848.385-2.677.72-2.677.72s.688-1.079 2-1.543c14.953-5.255 26.451 15.503-4.823 23.725 0-.002.359-.327.468-.617Z"/><path fill="#EA2D2E" d="M76.49 1.587S89.46 14.563 64.189 34.51c-20.266 16.006-4.621 25.13-.007 35.559-11.831-10.673-20.51-20.07-14.688-28.815C58.04 28.42 81.722 22.195 76.49 1.587Z"/><path fill="#0074BD" d="M52.214 126.021c22.476 1.437 57-.8 57.817-11.436 0 0-1.571 4.032-18.577 7.231-19.186 3.612-42.854 3.191-56.887.874 0 .001 2.875 2.381 17.647 3.331Z"/></svg>
